X:42
T:Loch Earn,aka. RDO.42
M:C|
L:1/8
Q:1/2=100
C:Nath Gow
S:Robert D. Owen MS,Indiana,1826.
R:.Reel
O:Indiana,USA
A:New Harmony
N:untitled in ms
Z:vmp.Chris Partington
K:G
d|g2dBG2BG|E2AE FDDd|g2dBG2BG|EA FD G2G:|!
d|(ef)ge (fg)ab|gfge fddf|(ef)ge (fg)ag|fefdg2Bd|!
efge dBgB|ceBd AGFE|GABG EB ce|dGcA G2G|]

